X:113
T:Speed the Plough. JGi.113
M:C
L:1/8
Q:1/4=130
S:Joshua Gibbons MS,1823,Tealby,Lincs.
C:Very Good
R:.hornpipe
O:Tealby,Lincolnshire
Z:VMP/R.Greig, 2009
K:G
D2|G>GG>B d>ed>B|d>gd>B d>dd>B|c>ec>A B>dB>G|cBAG FGAF|G>GG>B d>ed>B|
d>gd>B d>ed>B|c>ec>A B>dB>G|D2F2G2:||:G2Bd g zGz|g zf ze zd z|
c>ec>A B>dB>G|cBAG FGAF|G2Bd g zGz|g zf ze zd z|c>ec>A B>dB>G|D2F2G2||

